app/img/icons/svg/checked-card.svg

<svg width="141" height="95" viewBox="0 0 141 95" fill="none" xmlns="http://www.w3.org/2000/svg">
<path d="M35.0002 2H128.6C134.6 2 139.4 6.8 139.4 12.8V71.6C139.4 77.6 134.6 82.4 128.6 82.4H35.0002C29.0002 82.4 24.2002 77.6 24.2002 71.6V12.8C24.2002 6.8 29.0002 2 35.0002 2Z" stroke="currentColor" stroke-width="2.4"/>
<path d="M24.2002 24.8H139.4" stroke="currentColor" stroke-width="2.4"/>
<path d="M24.2002 71.6H139.4" stroke="currentColor" stroke-width="2.4"/>
<path d="M100.5 36.4V43.4H107.5V36.4H100.5ZM105.5 41.4H102.5V38.4H105.5V41.4Z" fill="currentColor"/>
<path d="M100.5 53.4V60.4H107.5V53.4H100.5ZM105.5 58.4H102.5V55.4H105.5V58.4Z" fill="currentColor"/>
<path d="M117.5 36.4V43.4H124.5V36.4H117.5ZM122.5 41.4H119.5V38.4H122.5V41.4Z" fill="currentColor"/>
<path d="M109.5 36.4V38.4H113.5V43.4H115.5V36.4H109.5Z" fill="currentColor"/>
<path d="M111.5 58.4V53.4H109.5V60.4H113.5V58.4H111.5Z" fill="currentColor"/>
<path d="M124.5 45.4H122.5V49.4H124.5V45.4Z" fill="currentColor"/>
<path d="M120.5 45.4H113.5V49.4H115.5V47.4H120.5V45.4Z" fill="currentColor"/>
<path d="M111.5 49.4H104.5V51.4H111.5V49.4Z" fill="currentColor"/>
<path d="M109.5 40.4V45.4H100.5V51.4H102.5V47.4H111.5V40.4H109.5Z" fill="currentColor"/>
<path d="M119.5 50.4C116.7 50.4 114.5 52.6 114.5 55.4C114.5 58.2 116.7 60.4 119.5 60.4C122.3 60.4 124.5 58.2 124.5 55.4C124.5 52.7 122.3 50.4 119.5 50.4ZM119.2 57.6L116.5 54.9L117.6 53.8L119.2 55.4L121.5 53.1L122.6 54.2L119.2 57.6Z" fill="currentColor"/>
<path d="M24.2 93C36.4607 93 46.4 83.0607 46.4 70.8C46.4 58.5393 36.4607 48.6 24.2 48.6C11.9393 48.6 2 58.5393 2 70.8C2 83.0607 11.9393 93 24.2 93Z" fill="#F7F7F7" stroke="currentColor" stroke-width="2.4"/>
<path d="M33.9999 59.8L23.1999 82.4L15.8999 68.6" fill="#F7F7F7"/>
<path d="M33.9999 59.8L23.1999 82.4L15.8999 68.6" stroke="currentColor" stroke-width="2.4"/>
</svg>

<?xml version="1.0" encoding="UTF-8" standalone="no"?>
<svg xmlns="http://www.w3.org/2000/svg" height="24.712mm" width="36.989mm" version="1.1" viewBox="0 0 36.98875 24.712084">
 <g transform="translate(-119.84 -178.05)">
  <g fill="none" transform="matrix(.26458 0 0 .26458 119.63 177.84)">
   <g stroke="currentColor" stroke-width="2.4">
    <path d="m35 2h93.6c6 0 10.8 4.8 10.8 10.8v58.8c0 6-4.8 10.8-10.8 10.8h-93.6c-6 0-10.8-4.8-10.8-10.8v-58.8c0-6 4.8-10.8 10.8-10.8z"/>
    <path d="m24.2 24.8h115.2"/>
    <path d="m24.2 71.6h115.2"/>
   </g>
   <g fill="currentColor">
    <path d="m100.5 36.4v7h7v-7zm5 5h-3v-3h3z"/>
    <path d="m100.5 53.4v7h7v-7zm5 5h-3v-3h3z"/>
    <path d="m117.5 36.4v7h7v-7zm5 5h-3v-3h3z"/>
    <path d="m109.5 36.4v2h4v5h2v-7z"/>
    <path d="m111.5 58.4v-5h-2v7h4v-2z"/>
    <path d="m124.5 45.4h-2v4h2z"/>
    <path d="m120.5 45.4h-7v4h2v-2h5z"/>
    <path d="m111.5 49.4h-7v2h7z"/>
    <path d="m109.5 40.4v5h-9v6h2v-4h9v-7z"/>
    <path d="m119.5 50.4c-2.8 0-5 2.2-5 5s2.2 5 5 5 5-2.2 5-5c0-2.7-2.2-5-5-5zm-0.3 7.2-2.7-2.7 1.1-1.1 1.6 1.6 2.3-2.3 1.1 1.1z"/>
   </g>
   <path d="m24.2 93c12.261 0 22.2-9.939 22.2-22.2s-9.939-22.2-22.2-22.2-22.2 9.939-22.2 22.2 9.939 22.2 22.2 22.2z" stroke="currentColor" stroke-width="2.4" fill="#f7f7f7"/>
   <path fill="#f7f7f7" d="m34 59.8-10.8 22.6-7.3-13.8"/>
   <path stroke-width="2.4" stroke="currentColor" d="m34 59.8-10.8 22.6-7.3-13.8"/>
  </g>
 </g>
</svg>
